X:1
T: Captain William McLeod's Fancy
C:
R:Jig
Q:180
K:F
M:6/8
L:1/16
|:f4c2 c2d2B2|A4G2 F6|g2a2b2 a2g2f2|e4d2 c6|d4B2 b4B2|
c4A2 a4A2|G2A2B2 A2G2F2|E2G2F2 E2D2C2|A2G2F2 C2D2E2|F6 F6:|
|:C2C2C2 C4f2|e2fge2 c4z2|C2C2C2 C4f2|f2gaf2 c6|
b4g2 a4f2|g4e2 f4c2|d2c2B2 A2B2G2|F6 F6:|
